X:1
T:Aspåkers-polska
T:W. Peterson-Berger (1867-1942) Satt för blandad kör av tonsättaren 1927
T:Text: E. A. Karlfeldt
T:Aspåkers-polska
T:©CPDL Edition may be freely distributed, duplicated, performed and recorded PA Aglert
T:©CPDL Edition may be freely distributed, duplicated, performed and recorded PA Aglert
T:©CPDL Edition may be freely distributed, duplicated, performed and recorded PA Aglert
T:©CPDL Edition may be freely distributed, duplicated, performed and recorded PA Aglert
C:W. Peterson-Berger (1867-1942)
Z:©CPDL Edition may be freely distributed, duplicated, performed and recorded
Z:PA Aglert
%%score [ 1 2 3 ( 4 5 ) ]
L:1/8
Q:1/4=152
M:3/4
K:F
V:1 treble nm="S"
V:2 treble nm="A"
V:3 treble-8 nm="T"
V:4 bass nm="B"
V:5 bass 
V:1
"^Enkelt och muntert"!p! [Ac]6 | [Bc]6 | [Ac]6 | [Bc]6 | c>d c>B A>c | B>A G2 G2 | F>G A>B c>d | %7
w: Var-|för,|var-|för.|Var- för sit- ta vi så|still och tys- ta?|Ha vi ut- tömt al- la|
w: Jag|skall|var-|pa.|Jag skall var- pa garn och|jag skall nys- ta,|jag skall kär- na smör och|
 e>d c4 | c>d c>B A>c | B>A G2 G2 |!<(! F>G A>=B c>!<)!d |!>(! e>d!>)! c2!<(! (3ceg!<)! | %12
w: kä- ra ord?|Ä- ro al- la de små|läp- par kyss- ta,|som gå le- en- de kring|det- ta bord? Tra- la- la|
w: klip- pa får.|Ald- rig ä- ro mi- na|läp- par kyss- ta,|ald- rig bli- va de i|det- ta år. Tra- la- la|
!f! e>!>(!g e z d z!>)! |!mf! c4 z2 |!p! B>B A>A G>G | F>F E2 A2 | B>B A>A G>G | F>F E3 z | %18
w: la- la- la- la-|la.|Ä- ro al- la de små|kvin- nor gif- ta,|som gå trip- pan- de i|den- na sal?|
w: la- la- la- la-|la.|Jag skall ploc- ka bär och|vä- va vam- mal,|jag skall ver- ka, förr'n jag|blir för tung.|
!<(! c>c B>B A>!<)!A | G>G F2 d2 |!mf!!<(! c>d ef!<)! !fermata!gf |!f!!>(! (3:2:2A2 G F3!>)! z | %22
w: Finns här ing- a hjo- ne-|lag att stif- ta?|Brin- na ing- a hjär- tan|i vår dal?|
w: Om jag gif- ter mej, när|jag blir gam- mal,|skall jag ta- ga dej, om|du är ung.|
!f! !>!c>A G>E (C/E/)D/C/ | D>F C4 |!mp! C4 C2 | C4!<(! CF/A/!<)! | !>!c>A G>E (C/E/)D/C/ | %27
w: Traj- ta- raj- ta rai * ta- ra-|raj ta ram-|tram tam|tram traj- ta- ra|traj- ta- raj- ta rai * ta- ra|
w: |||||
 D>F!>(! C4!>)! |!mp! C4!<(! C2!<)! |!f! F6 |] %30
w: raj- ta ram|tram tam|ta.|
w: |||
V:2
!p! F6 | [EG]6 | F6 | [EG]6 | [FA]6 | [E-G]4 [EB]2 | [FA]6 | [GB-]4 [EB]2 | [FA]6 | [EG]4 [EB]2 | %10
w: Var-|för,|var-|för.|Var-|för *|sit-|ta *|vi|* så|
w: Jag|skall|var-|pa.|Jag|skall *|var-|pa *|garn|* och|
!<(! [FA]4 [FA]2!<)! |!>(! [FG]2!>)! [EG]2!<(! G2!<)! |!f! A4!>(! F2!>)! |!mf! E4 z2 | %14
w: still och|tys- ta kring|det- ta|bord.|
w: jag skall|nys- ta, och|klip- pa|får.|
!p! G>G F>F E>E | D>D ^C2 C2 | G>G F>F E>E | D>D ^C3 z |!<(! A>A G>G ^F>!<)!F | G>D D2 F2 | %20
w: Ä- ro al- la de små|kvin- nor gif- ta,|som gå trip- pan- de i|den- na sal?|Finns här ing- a hjo- ne-|lag att stif- ta?|
w: Jag skall ploc- ka bär och|vä- va vam- mal,|jag skall ver- ka, förr'n jag|blir för tung.|Om jag gif- ter mej, när|jag blir gam- mal,|
!mf!!<(! [Fc]>[Fc] [Fc][Fc]!<)! !fermata![Fc][Fc] |!f!!>(! (3:2:2D2 E F3!>)! z | %22
w: Brin- na ing- a hjär- tan|i vår dal?|
w: skall jag ta- ga dej, om|du är ung.|
!f! !>![CE]4 (C/E/)D/C/ | D>F (C2 A,2) |!mp! C4 B,2 | A,4 C2 |!p! !>![CE]4 (C/E/)D/C/ | %27
w: Tram rai * ta- ra|raj ta ram *|tram tam|tram tam|tram raj * ta- ra|
w: |||||
 D>F C2 A,2 |!mp! C4!<(! B,2!<)! |!f! A,6 |] %30
w: raj- ta ram *|tram tam|ta.|
w: |||
V:3
!p! c4 c2 | c4 c2 | c4 c2 | c4 c2 | c4 c2 | c4 c2 | c4 c2 | c4 c2 | c4 c2 | c4 c2 |!<(! c4 c2!<)! | %11
w: Var- för|sit- ta|vi så|tys- ta?|Ha vi|ut- tömt|al- la|ord och|ä- ro|al- la|läp- par|
w: Jag skall|var- pa,|nys- ta,|kär- na|smör och|klip- pa|får, och|ald- rig|bli- va|mi- na|läp- par|
!>(! =B2!>)! c2!<(! c2!<)! |!f! c4!>(! =B2!>)! |!mf! c4 z2 | z6 | z6 |!p! (E2 F2) G2 | %17
w: kyss- ta kring|det- ta|bord.|||Ä- ro de|
w: kyss- ta i|det- ta|år.|||Jag * skall|
 A=B ^c2 e z |!<(! _e>e d2 c2!<)! | d>d G2 ^G2 |!mf!!<(! A>A A!<)!A !fermata!AA | %21
w: al- la gif- ta?|Finns ej hjo- ne-|lag att stif- ta?|Brin- na ing- a hjär- tan|
w: vä- va vam- mal.|Om jag gif- ter|mej som gam- mal,|skall jag ta- ga dej, om|
!f!!>(! (3:2:2B2 B A3!>)! z |!f! !>!B4 B2 | A2- A>"^marc."A F>D |!mp! B4 C2 | %25
w: i vår dal?|Tram tam|tam * ta raj ta|tram tam|
w: du är ung.||||
!mf!!<(! FG/F/ AF/A/!<)! c!>(!A/c/!>)! | !>!B4 B2 | A2- A>A F>D |!mp! B4!<(! C2!<)! |!f! C6 |] %30
w: tam ta- ra raj ta- ra raj ta- ra|tram tam|tam * ta raj- ta|tram tam|ta.|
w: |||||
V:4
!p! F,4 F,2 | F,4 F,2 | F,4 F,2 | F,4 F,2 | F,4 F,2 | F,4 F,2 | F,4 F,2 | F,4 F,2 | F,4 F,2 | %9
w: Var- för|sit- ta|vi så|tys- ta?|Ha vi|ut- tömt|al- la|ord och|ä- ro|
w: Jag skall|var- pa,|nys- ta,|kär- na|smör och|klip- pa|får, och|ald- rig|bli- va|
 F,4 F,2 |!<(! F,4 F,2!<)! |!>(! G,2!>)! C2!<(! E,2!<)! |!f!!>(! F,4 G,2!>)! |!mf! (C2 C,2) z2 | %14
w: al- la|läp- par|kyss- ta kring|det- ta|bord. *|
w: mi- na|läp- par|kyss- ta i|det- ta|år. *|
!p! (^C,2 D,2) E,2 | F,G, A,2 A,,2 | ^C,2 D,2 E,2 | F,G, (A,2 A,,) z |!<(! ^F,,>F,, G,,2 A,,2!<)! | %19
w: Ä- ro de|al- la gif- ta|kvin- nor- na|här i sa- len?|Finns ej hjo- ne-|
w: Jag * skall|vä- va vam- mal,|förr än jag|blir för tung. *|Om jag gif- ter|
 B,,>B,, =B,,2 B,,2 |!mf!!<(! C,>C, C,!<)!C, !fermata!C,C, | %21
w: lag att stif- ta?|Brin- na ing- a hjär- tan|
w: mej som gam- mal,|skall jag ta- ga dej, om|
!f!!>(! (3:2:2C,2 C,!>)! F,2 [F,,C,]2!f! | !>![F,,C,]4 [F,,C,]2 | C,2- C,>"^marc."A, F,>D, | %24
w: i vår dal? Tram|tram tam|tram * ta raj ta|
w: du är ung. *|||
!mf! C,!<(!D,/C,/ E,C,/E,/ G,A,/!<)!G,/ | F,G,/F,/ A, z A,2 | !>!C,4 C,2 | C,2- C,>A, F,>D, | %28
w: raj ta- ra raj ta- ra raj ta- ra|raj ta- ra raj tram|tram tam|tam * ta raj- ta|
w: ||||
!f! C,!<(!D,/C,/ E,C,/E,/ G,!<)!A,/G,/ |!f! F,6 |] %30
w: raj ta- ra raj ta- ra raj ta- ra|ta.|
w: ||
V:5
 x6 | x6 | x6 | x6 | x6 | x6 | x6 | x6 | x6 | x6 | x6 | x6 | x6 | x6 | x6 | x6 | x6 | x6 | x6 | %19
w: |||||||||||||||||||
w: |||||||||||||||||||
w: |||||||||||||||||||
 x6 | x6 | x6 | x6 | F,,4 F,2 | F,,4 F,,2 | F,,4 F,2 | F,,4 F,,2 | F,,4 F,2 | F,,4 F,,2 | F,,6 |] %30
w: |||||||||||
w: |||||||||||
w: ||||tram tam|tram tam|tram tam|tram tam|tram tam|tram tam|ta.|

